X: 11
T: Bullet Game Song (c)
C: Anon.
%%abc-version 2.0
%%abcx-abcm2ps-target-version 5.9.1 (29 Sep 2008)
%%abc-creator hum2abc beta
%%abcx-conversion-date 2020/08/10 20:56:09
%%abc-copyright Electronic Copyright 2000 David Huron
%%abc-edited-by David Huron
%%abcx-initial-encoding-date August 27, 2000
%%humdrum-veritas 188095203
%%humdrum-veritas-data 1628332626
%%linebreak <none>
%%barnumbers 0
L: 1/16
M: 2/4
Q: 1/4=63
K: E clef=bass
E,2 E, E, F,2 E,2 | 
F,2> G,2 F, F, F, z | 
E,2 E,2 E,3 C, | 
C,2 E, E, E,2 C,2 | 
E,4E, E, F, z | 
E,2 E, E, E,2 z2 | 
E,2 E, E, F,2 E,2 | 
F,2> G,2 F, F, F, z | 
E,2 E,2 E,3 C, | 
C,2 E, E, E,2 C,2 | 
E,4E, E, F, z | 
E,2 E, E, E,2 z2 |]  


